frontend/public/svg/hand gestures/scroll-left-1.svg

<svg width="131" height="147" viewBox="0 0 131 147" fill="none" xmlns="http://www.w3.org/2000/svg">
<g clip-path="url(#clip0)">
<path d="M128.758 69.6161C126.56 63.9538 121.341 61.0515 115.441 62.2237C114.022 62.577 112.655 63.1157 111.376 63.8259C110.844 64.0884 110.296 64.3614 109.731 64.6134C109.018 62.7471 107.859 61.084 106.355 59.7698C104.85 58.4555 103.046 57.5304 101.101 57.0754C96.4992 55.8388 92.7286 56.8483 89.8873 60.0814C87.9517 56.9691 85.4898 55.0598 82.7398 54.5478C79.9628 54.032 77.0296 54.92 73.9927 57.1876C73.9009 55.8651 73.8182 54.5734 73.7361 53.3047C73.53 50.0926 73.3351 47.059 73.0338 44.0149C72.9183 42.8476 72.8061 41.6793 72.6965 40.5101C72.1891 35.1741 71.6647 29.6562 70.7038 24.3031C69.9819 20.8748 68.6561 17.6022 66.7881 14.6379C65.5787 12.5914 64.0198 11.3234 62.1539 10.8685C60.1665 10.3842 57.9073 10.8843 55.6206 12.3125C51.846 14.6753 51.0019 18.6022 50.6888 21.7592C50.2635 26.0188 50.0391 29.8728 50.001 33.5391C49.9013 42.9904 49.8922 52.7344 49.9729 62.4921C49.9991 65.6426 50.1646 68.8351 50.3241 71.9258C50.3897 73.2345 50.4554 74.5432 50.5164 75.852H50.5071C50.3102 75.6951 50.1133 75.5323 49.9203 75.3689C49.621 75.1175 49.321 74.8661 49.006 74.6358C42.333 69.7507 35.2093 68.0166 27.8183 69.4842C26.1972 69.7631 24.6743 70.4516 23.3944 71.4854C22.1144 72.5184 21.1199 73.8613 20.5053 75.3873C19.9029 77.0117 19.7193 78.7622 19.9717 80.4765C20.224 82.1902 20.904 83.8134 21.949 85.1956C23.0086 86.5536 24.2123 87.7927 25.5387 88.8921L25.9982 89.3036C30.8821 93.5534 34.946 98.6623 37.9893 104.376C42.1741 112.438 46.8604 120.909 52.3159 130.272C53.7434 132.722 56.0321 134.726 57.8659 136.198C61.2316 138.899 65.2629 141.136 70.5549 143.237C75.4268 145.193 80.629 146.198 85.8797 146.198C91.7375 146.126 97.5376 145.038 103.023 142.982C107.908 141.126 112.348 138.262 116.054 134.578C119.759 130.893 122.648 126.469 124.531 121.595C129.711 108.247 131.728 93.7142 130.7 77.1653C130.438 74.5649 129.783 72.0196 128.758 69.6161ZM56.5013 83.793C56.3575 75.4089 56.1733 67.1877 56.0007 59.5564C55.9554 57.6293 55.885 55.701 55.8148 53.7734C55.6737 49.9338 55.5281 45.963 55.6049 42.0676C55.7244 35.9696 56.1366 29.7717 56.5356 23.7774L56.6811 21.5813C56.9056 18.1769 58.1167 16.4579 60.7204 15.8633C62.8082 17.216 64.0828 19.4272 64.7286 22.8093C65.61 27.3061 66.2165 31.8525 66.544 36.4231C66.9916 43.0357 67.325 49.7684 67.6473 56.2793C67.8245 59.8533 68.0083 63.4268 68.1973 66.9999C68.3364 69.5531 69.3236 70.9117 71.1305 71.0371C73.3554 71.1946 74.1778 69.4894 74.8329 68.1216C75.0757 67.6136 75.312 67.0984 75.5483 66.5825C76.3017 64.762 77.2482 63.0273 78.3705 61.4079C79.4528 59.9725 80.8088 59.2787 82.0801 59.5045C83.4099 59.7388 84.4948 60.9228 85.0553 62.7527C85.4202 64.1738 85.6093 65.634 85.6198 67.101C85.6447 67.6189 85.6703 68.1354 85.7097 68.6474C85.7228 68.9932 85.7044 69.3398 85.6539 69.6824C85.5417 70.2541 85.5653 70.8441 85.7241 71.4046C86.0923 72.378 86.8025 73.1846 87.7214 73.6729C88.0207 73.8094 88.3449 73.883 88.6737 73.8889C89.0025 73.8948 89.3294 73.8331 89.6333 73.7077C89.9372 73.5824 90.2122 73.3953 90.4412 73.1597C90.6703 72.9234 90.8482 72.6425 90.9637 72.3347C91.1789 71.8312 91.3503 71.3101 91.4776 70.7778C91.5432 70.5356 91.6089 70.2928 91.6817 70.0559C91.8241 69.5964 91.9528 69.1317 92.0821 68.667C92.3413 67.6294 92.6793 66.6134 93.0928 65.6268L93.1283 65.5488C94.0977 63.4052 95.0166 61.381 97.7259 61.5628C99.9188 61.7098 102.78 62.5716 103.95 65.8415C104.486 67.5861 104.808 69.3884 104.912 71.2104L104.991 71.998C105.026 72.3399 105.038 72.693 105.051 73.0481C105.106 74.6299 105.169 76.423 107.404 77.038C109.755 77.6858 110.664 76.0607 111.461 74.6266C111.614 74.3516 111.767 74.0772 111.929 73.8193C112.08 73.5797 112.229 73.3382 112.379 73.0973C113.011 72.0006 113.74 70.9623 114.556 69.9942C115.901 68.4984 117.419 67.7751 118.853 67.9661C120.259 68.1512 121.521 69.2184 122.412 70.9708C124.501 75.0814 125.428 79.0628 125.169 82.8026C124.628 90.5868 123.748 98.323 122.878 105.524C122.156 111.512 119.738 117.004 117.471 121.586C113.866 128.866 107.925 133.583 98.7708 136.433C86.0543 140.39 74.0564 138.223 62.0869 129.811C60.8202 128.955 59.7158 127.88 58.8254 126.637C56.7946 123.694 54.919 120.646 53.2065 117.506C50.4945 112.464 47.885 107.323 45.4493 102.222C41.4549 93.8547 36.3415 87.2631 29.8155 82.0721C28.7105 81.188 27.777 80.1083 27.0619 78.8875C26.8613 78.5751 26.7301 78.2233 26.6767 77.8558C26.6234 77.4882 26.6495 77.1135 26.753 76.7571C26.9081 76.356 27.1455 75.9924 27.45 75.6892C27.7546 75.386 28.1195 75.1503 28.5211 74.9968C29.8162 74.4172 31.22 74.1206 32.6389 74.1271C33.3952 74.1297 34.1498 74.2026 34.8928 74.3437C40.6161 75.4057 44.4616 77.5355 46.9925 81.0462C47.8847 82.4442 48.5721 83.963 49.0342 85.5559C49.1707 85.9497 49.3064 86.3481 49.4482 86.7373C50.0094 88.2797 50.7933 89.7099 52.7078 89.7355H52.7642C54.4425 89.7355 55.6632 88.6939 56.1167 86.8693C56.3786 85.8644 56.5078 84.83 56.5013 83.7917V83.793Z" fill="black"/>
<path d="M1.86941 16.4642C4.86494 19.5156 8.35137 23.0559 11.8247 26.4656C12.3634 26.9766 13.0672 27.2779 13.8088 27.3149H13.8783C14.4874 27.2899 15.9611 27.1521 16.4947 26.396C16.7149 25.9557 16.8255 25.4688 16.8175 24.9766C16.8095 24.4844 16.683 24.0014 16.4486 23.5685C15.8591 22.7008 15.1428 21.9264 14.3235 21.2713C14.164 21.1296 14.0044 20.9884 13.8482 20.8466C12.6734 19.7781 11.4743 18.7313 10.0855 17.5184L8.75167 16.3521H9.49871C10.2863 16.3521 10.8375 16.3521 11.3921 16.3521C13.2758 16.3449 15.1603 16.3521 17.0453 16.3521C21.6003 16.3626 26.3041 16.373 30.93 16.224C31.2785 16.2122 31.6297 16.2044 31.9802 16.1965C34.8372 16.1309 37.7921 16.0652 40.7055 14.3338L41.0135 14.1507L40.8125 13.8547C40.3952 13.1642 39.807 12.5929 39.1047 12.1958C38.4025 11.7987 37.6099 11.5893 36.8031 11.5877C32.8401 11.4709 28.9603 11.3632 25.0636 11.3285C21.6448 11.2989 18.2484 11.3048 14.6523 11.3121C13.3816 11.3121 12.0925 11.3166 10.7739 11.318L17.9378 5.68065C18.0967 5.5566 18.2661 5.4332 18.4413 5.30719C19.4744 4.56093 20.8881 3.53902 19.7684 1.84173C19.6338 1.5946 19.448 1.37898 19.2236 1.20922C18.9992 1.03947 18.7414 0.919462 18.4669 0.857222C17.6478 0.725952 16.8955 1.30549 16.2313 1.82138C16.0167 1.98743 15.8082 2.14956 15.6086 2.27623C13.6153 3.54493 11.6103 4.86679 9.67146 6.14468C7.30011 7.70876 4.84857 9.32532 2.40109 10.8539C1.68293 11.2171 1.12829 11.8379 0.847732 12.5922C0.567175 13.3466 0.581243 14.1789 0.887472 14.9232C1.08998 15.5065 1.42631 16.0343 1.86941 16.4642Z" fill="black"/>
</g>
<defs>
<clipPath id="clip0">
<rect width="130.611" height="146.363" fill="white" transform="translate(0.353027 0.196533)"/>
</clipPath>
</defs>
</svg>

<svg xmlns="http://www.w3.org/2000/svg" width="131" height="147" fill="none" viewBox="0 0 131 147"><g fill="#000" clip-path="url(#a)"><path d="M128.758 69.616c-2.198-5.662-7.417-8.565-13.317-7.392a16.7 16.7 0 0 0-4.065 1.602c-.532.262-1.08.535-1.645.787a12.22 12.22 0 0 0-8.63-7.538c-4.602-1.236-8.372-.227-11.214 3.006-1.935-3.112-4.397-5.021-7.147-5.533-2.777-.516-5.71.372-8.747 2.64q-.136-1.983-.257-3.883c-.206-3.212-.4-6.246-.702-9.29a683 683 0 0 1-.338-3.505c-.507-5.336-1.031-10.854-1.992-16.207a29.6 29.6 0 0 0-3.916-9.665c-1.21-2.047-2.768-3.315-4.634-3.77-1.988-.484-4.247.016-6.533 1.444-3.775 2.363-4.62 6.29-4.932 9.447-.425 4.26-.65 8.114-.688 11.78-.1 9.451-.109 19.195-.028 28.953.026 3.15.192 6.343.351 9.434q.1 1.962.192 3.926h-.009q-.297-.237-.587-.483c-.299-.251-.599-.503-.914-.733-6.673-4.885-13.797-6.62-21.188-5.152a9.64 9.64 0 0 0-7.313 5.903 10.32 10.32 0 0 0 1.444 9.809 24 24 0 0 0 3.59 3.696l.46.412a53 53 0 0 1 11.99 15.072c4.185 8.062 8.871 16.533 14.327 25.896 1.427 2.45 3.716 4.454 5.55 5.926 3.366 2.701 7.397 4.938 12.689 7.039a41.1 41.1 0 0 0 15.325 2.961 50.6 50.6 0 0 0 17.143-3.216 37.24 37.24 0 0 0 21.508-21.387c5.18-13.348 7.197-27.88 6.169-44.43a25.9 25.9 0 0 0-1.942-7.549M56.501 83.793c-.143-8.384-.328-16.605-.5-24.237-.046-1.927-.116-3.855-.186-5.783-.141-3.84-.287-7.81-.21-11.705.12-6.098.532-12.296.93-18.29l.146-2.197c.225-3.404 1.436-5.123 4.04-5.718 2.087 1.353 3.362 3.564 4.008 6.946a113 113 0 0 1 1.815 13.614c.448 6.613.781 13.345 1.103 19.856q.266 5.361.55 10.72c.14 2.554 1.127 3.913 2.933 4.038 2.225.158 3.048-1.548 3.703-2.915q.363-.764.715-1.54c.754-1.82 1.7-3.555 2.823-5.174 1.082-1.436 2.438-2.13 3.71-1.904 1.329.235 2.414 1.419 2.974 3.249a18 18 0 0 1 .565 4.348c.025.518.05 1.034.09 1.546q.02.52-.056 1.035a3.7 3.7 0 0 0 .07 1.723 4.3 4.3 0 0 0 1.997 2.268 2.4 2.4 0 0 0 3.243-1.338 9.7 9.7 0 0 0 .514-1.557c.065-.242.13-.485.204-.722.142-.46.27-.924.4-1.389.26-1.038.597-2.054 1.01-3.04l.036-.078c.97-2.144 1.889-4.168 4.598-3.986 2.193.147 5.054 1.009 6.224 4.278.536 1.745.858 3.547.962 5.37l.079.787c.035.342.047.695.06 1.05.055 1.582.118 3.375 2.353 3.99 2.351.648 3.26-.977 4.057-2.411.153-.275.306-.55.468-.808q.226-.36.45-.722a21.4 21.4 0 0 1 2.177-3.103c1.345-1.496 2.863-2.219 4.297-2.028 1.406.185 2.668 1.252 3.559 3.005 2.089 4.11 3.016 8.092 2.757 11.832-.541 7.784-1.421 15.52-2.291 22.721-.722 5.988-3.14 11.48-5.407 16.062-3.605 7.28-9.546 11.997-18.7 14.847-12.717 3.957-24.715 1.79-36.684-6.622a12.9 12.9 0 0 1-3.262-3.174 102 102 0 0 1-5.619-9.131 359 359 0 0 1-7.757-15.284c-3.994-8.367-9.107-14.959-15.633-20.15a11.6 11.6 0 0 1-2.754-3.184 2.6 2.6 0 0 1-.309-2.13 3.07 3.07 0 0 1 1.768-1.761 10 10 0 0 1 4.118-.87c.756.003 1.51.076 2.254.217 5.723 1.062 9.569 3.192 12.1 6.702a17.4 17.4 0 0 1 2.041 4.51c.137.394.272.792.414 1.181.561 1.543 1.345 2.973 3.26 2.999h.056c1.678 0 2.9-1.042 3.353-2.867a12 12 0 0 0 .384-3.077zM1.87 16.464c2.995 3.052 6.481 6.592 9.955 10.002a3.1 3.1 0 0 0 1.984.849h.07c.608-.025 2.082-.163 2.616-.919a3.06 3.06 0 0 0-.046-2.828 10.5 10.5 0 0 0-2.126-2.297q-.24-.212-.475-.424c-1.175-1.069-2.374-2.116-3.763-3.329l-1.333-1.166h2.64c1.884-.007 3.768 0 5.653 0 4.555.01 9.26.021 13.885-.128q.524-.017 1.05-.027c2.857-.066 5.812-.132 8.726-1.863l.307-.183-.2-.296a4.7 4.7 0 0 0-4.01-2.267c-3.963-.117-7.843-.225-11.74-.26-3.418-.03-6.815-.023-10.41-.016-1.271 0-2.56.005-3.88.006l7.165-5.637q.24-.186.503-.374c1.033-.746 2.447-1.768 1.327-3.465a1.98 1.98 0 0 0-1.301-.985c-.82-.131-1.572.448-2.236.964-.214.166-.423.329-.622.455a436 436 0 0 0-5.938 3.869c-2.37 1.564-4.822 3.18-7.27 4.709a3.197 3.197 0 0 0-1.514 4.07c.203.583.54 1.11.982 1.54"/></g><defs><clipPath id="a"><path fill="#fff" d="M.353.197h130.611V146.56H.353z"/></clipPath></defs></svg>
